X:1
M:2/2
K:C
G|:F2 EA|F3/3A/2 AF|GF AG|E2 D3/2E/2|FD A,2|
G2 G3/2F/2|AG GA|B3/2G/2 FE|G2 G3/2G/2|FG DF|\
A3/2A/2 FF|D2 G3/2F/2|E2 G2|E3/2E/2 G,C|D2 A2|AG2F|EF AG|B2 A3/2E/2|FE FE|\
C4-|C4|